resources/svg/git-o.svg

<svg width="15" height="15" viewBox="0 0 15 15" fill="none" xmlns="http://www.w3.org/2000/svg">
<path d="M6.79286 1.20708L7.14642 1.56063L7.14642 1.56063L6.79286 1.20708ZM1.20708 6.79287L0.853524 6.43931H0.853524L1.20708 6.79287ZM1.20708 8.20708L1.56063 7.85352L1.56063 7.85352L1.20708 8.20708ZM6.79287 13.7929L6.43931 14.1464L6.79287 13.7929ZM8.20708 13.7929L7.85352 13.4393L8.20708 13.7929ZM13.7929 8.20708L14.1464 8.56063L13.7929 8.20708ZM13.7929 6.79286L13.4393 7.14642L13.7929 6.79286ZM8.20708 1.20708L8.56063 0.853524V0.853524L8.20708 1.20708ZM6.43931 0.853525L0.853524 6.43931L1.56063 7.14642L7.14642 1.56063L6.43931 0.853525ZM0.853525 8.56063L6.43931 14.1464L7.14642 13.4393L1.56063 7.85352L0.853525 8.56063ZM8.56063 14.1464L14.1464 8.56063L13.4393 7.85352L7.85352 13.4393L8.56063 14.1464ZM14.1464 6.43931L8.56063 0.853524L7.85352 1.56063L13.4393 7.14642L14.1464 6.43931ZM14.1464 8.56063C14.7322 7.97484 14.7322 7.0251 14.1464 6.43931L13.4393 7.14642C13.6346 7.34168 13.6346 7.65826 13.4393 7.85352L14.1464 8.56063ZM6.43931 14.1464C7.0251 14.7322 7.97485 14.7322 8.56063 14.1464L7.85352 13.4393C7.65826 13.6346 7.34168 13.6346 7.14642 13.4393L6.43931 14.1464ZM0.853524 6.43931C0.267737 7.0251 0.267739 7.97485 0.853525 8.56063L1.56063 7.85352C1.36537 7.65826 1.36537 7.34168 1.56063 7.14642L0.853524 6.43931ZM7.14642 1.56063C7.34168 1.36537 7.65826 1.36537 7.85352 1.56063L8.56063 0.853524C7.97484 0.267737 7.0251 0.267739 6.43931 0.853525L7.14642 1.56063ZM5.14642 2.85352L6.14642 3.85352L6.85352 3.14642L5.85352 2.14642L5.14642 2.85352ZM7.49997 4.99997C7.22383 4.99997 6.99997 4.77611 6.99997 4.49997H5.99997C5.99997 5.3284 6.67154 5.99997 7.49997 5.99997V4.99997ZM7.99997 4.49997C7.99997 4.77611 7.77611 4.99997 7.49997 4.99997V5.99997C8.3284 5.99997 8.99997 5.3284 8.99997 4.49997H7.99997ZM7.49997 3.99997C7.77611 3.99997 7.99997 4.22383 7.99997 4.49997H8.99997C8.99997 3.67154 8.3284 2.99997 7.49997 2.99997V3.99997ZM7.49997 2.99997C6.67154 2.99997 5.99997 3.67154 5.99997 4.49997H6.99997C6.99997 4.22383 7.22383 3.99997 7.49997 3.99997V2.99997ZM8.14642 5.85352L9.64642 7.35352L10.3535 6.64642L8.85352 5.14642L8.14642 5.85352ZM10.5 7.99997C10.2238 7.99997 9.99997 7.77611 9.99997 7.49997H8.99997C8.99997 8.3284 9.67154 8.99997 10.5 8.99997V7.99997ZM11 7.49997C11 7.77611 10.7761 7.99997 10.5 7.99997V8.99997C11.3284 8.99997 12 8.3284 12 7.49997H11ZM10.5 6.99997C10.7761 6.99997 11 7.22383 11 7.49997H12C12 6.67154 11.3284 5.99997 10.5 5.99997V6.99997ZM10.5 5.99997C9.67154 5.99997 8.99997 6.67154 8.99997 7.49997H9.99997C9.99997 7.22383 10.2238 6.99997 10.5 6.99997V5.99997ZM6.99997 5.49997V9.49997H7.99997V5.49997H6.99997ZM7.49997 11C7.22383 11 6.99997 10.7761 6.99997 10.5H5.99997C5.99997 11.3284 6.67154 12 7.49997 12V11ZM7.99997 10.5C7.99997 10.7761 7.77611 11 7.49997 11V12C8.3284 12 8.99997 11.3284 8.99997 10.5H7.99997ZM7.49997 9.99997C7.77611 9.99997 7.99997 10.2238 7.99997 10.5H8.99997C8.99997 9.67154 8.3284 8.99997 7.49997 8.99997V9.99997ZM7.49997 8.99997C6.67154 8.99997 5.99997 9.67154 5.99997 10.5H6.99997C6.99997 10.2238 7.22383 9.99997 7.49997 9.99997V8.99997Z" fill="black"/>
</svg>

<svg viewBox="0 0 15 15" fill="none" xmlns="http://www.w3.org/2000/svg" fill="currentColor"><path d="M6.793 1.207l.353.354-.353-.354zM1.207 6.793l-.353-.354.353.354zm0 1.414l.354-.353-.354.353zm5.586 5.586l-.354.353.354-.353zm1.414 0l-.353-.354.353.354zm5.586-5.586l.353.354-.353-.354zm0-1.414l-.354.353.354-.353zM8.207 1.207l.354-.353-.354.353zM6.44.854L.854 6.439l.707.707 5.585-5.585L6.44.854zM.854 8.56l5.585 5.585.707-.707-5.585-5.585-.707.707zm7.707 5.585l5.585-5.585-.707-.707-5.585 5.585.707.707zm5.585-7.707L8.561.854l-.707.707 5.585 5.585.707-.707zm0 2.122a1.5 1.5 0 000-2.122l-.707.707a.5.5 0 010 .708l.707.707zM6.44 14.146a1.5 1.5 0 002.122 0l-.707-.707a.5.5 0 01-.708 0l-.707.707zM.854 6.44a1.5 1.5 0 000 2.122l.707-.707a.5.5 0 010-.708L.854 6.44zm6.292-4.878a.5.5 0 01.708 0L8.56.854a1.5 1.5 0 00-2.122 0l.707.707zm-2 1.293l1 1 .708-.708-1-1-.708.708zM7.5 5a.5.5 0 01-.5-.5H6A1.5 1.5 0 007.5 6V5zm.5-.5a.5.5 0 01-.5.5v1A1.5 1.5 0 009 4.5H8zM7.5 4a.5.5 0 01.5.5h1A1.5 1.5 0 007.5 3v1zm0-1A1.5 1.5 0 006 4.5h1a.5.5 0 01.5-.5V3zm.646 2.854l1.5 1.5.707-.708-1.5-1.5-.707.708zM10.5 8a.5.5 0 01-.5-.5H9A1.5 1.5 0 0010.5 9V8zm.5-.5a.5.5 0 01-.5.5v1A1.5 1.5 0 0012 7.5h-1zm-.5-.5a.5.5 0 01.5.5h1A1.5 1.5 0 0010.5 6v1zm0-1A1.5 1.5 0 009 7.5h1a.5.5 0 01.5-.5V6zM7 5.5v4h1v-4H7zm.5 5.5a.5.5 0 01-.5-.5H6A1.5 1.5 0 007.5 12v-1zm.5-.5a.5.5 0 01-.5.5v1A1.5 1.5 0 009 10.5H8zm-.5-.5a.5.5 0 01.5.5h1A1.5 1.5 0 007.5 9v1zm0-1A1.5 1.5 0 006 10.5h1a.5.5 0 01.5-.5V9z" fill="currentColor"/></svg>
